X:18788
T:William Taylor's Table Top
M:4/4
L:1/8
C:Dave Shepherd
R:Hornpipe
K:Am
E2|A2A2ABcA|BcBAG2E2|e2e2dedc|BAGA BcdB|A2A2ABcA|BcBAG2E2|edcB AcBG|A2A2
A2::
e2|ecAc e2e2|dBGB d2d2|cBAG AGAc|BABc B2B2|ecAc e2e2|dBGB d2d2|cBAG AcBG
|A2A2A2:|


